Papirus/48x48/apps/shutter.svg

<?xml version="1.0" encoding="UTF-8" standalone="no"?>
<svg
   xmlns:dc="http://purl.org/dc/elements/1.1/"
   xmlns:cc="http://creativecommons.org/ns#"
   xmlns:rdf="http://www.w3.org/1999/02/22-rdf-syntax-ns#"
   xmlns:svg="http://www.w3.org/2000/svg"
   xmlns="http://www.w3.org/2000/svg"
   xmlns:sodipodi="http://sodipodi.sourceforge.net/DTD/sodipodi-0.dtd"
   xmlns:inkscape="http://www.inkscape.org/namespaces/inkscape"
   viewBox="0 0 48 48"
   version="1.1"
   id="svg2"
   inkscape:version="0.91 r13725"
   sodipodi:docname="shutter.svg">
  <metadata
     id="metadata35">
    <rdf:RDF>
      <cc:Work
         rdf:about="">
        <dc:format>image/svg+xml</dc:format>
        <dc:type
           rdf:resource="http://purl.org/dc/dcmitype/StillImage" />
      </cc:Work>
    </rdf:RDF>
  </metadata>
  <sodipodi:namedview
     pagecolor="#ffffff"
     bordercolor="#666666"
     borderopacity="1"
     objecttolerance="10"
     gridtolerance="10"
     guidetolerance="10"
     inkscape:pageopacity="0"
     inkscape:pageshadow="2"
     inkscape:window-width="1600"
     inkscape:window-height="873"
     id="namedview33"
     showgrid="false"
     inkscape:zoom="13.693685"
     inkscape:cx="24"
     inkscape:cy="24"
     inkscape:window-x="0"
     inkscape:window-y="0"
     inkscape:window-maximized="1"
     inkscape:current-layer="svg2" />
  <defs
     id="defs4">
    <clipPath
       id="clipPath-429196716" />
  </defs>
  <path
     style="opacity:0.2;fill:#000000;fill-opacity:1"
     d="M 36.960938,5.0013296 C 31.326861,5.0665307 22.635006,6.6329155 19.917969,9.8704703 l -0.0059,0 C 17.74408,13.022424 17.468242,25.357046 18.03125,24.597033 22.645312,18.334927 33.703504,10.60157 40.308594,7.4935171 43.874642,5.8078886 41.342996,4.9505287 36.960938,5.0013296 Z M 15.916016,12.048205 c -1.423419,0.241824 -7.136031,4.180093 -5.820313,11.257813 l 0.002,0.0039 c 1.248917,3.615961 9.249561,8.422593 8.972656,7.517578 -2.272131,-7.463626 -3.093246,-12.292143 -2.839843,-18.65625 0.0047,-0.117952 -0.11111,-0.157588 -0.314453,-0.123047 z m 15.605468,3.167969 c -3.813152,0.274545 -10.520038,6.76767 -9.578125,6.730469 7.799505,-0.269025 12.670778,0.176877 18.75586,2.068359 0.902762,0.280065 -0.972614,-8.162817 -9.177735,-8.798828 z m -4.125,6.759765 c -0.201153,0.01048 -0.284468,0.06323 -0.216796,0.160157 4.45706,6.402708 6.721976,10.73885 8.4375,16.876953 0.254764,0.910536 6.327503,-5.248752 2.40625,-12.484375 -2.011027,-2.675045 -9.217935,-4.626736 -10.626954,-4.552735 z m -20.6542965,1.21875 c -0.7334899,-0.09648 -2.4525021,7.91436 4.4003905,11.986329 3.543248,1.444424 12.428418,-1.401715 11.566406,-1.794922 -7.112696,-3.206154 -11.281328,-5.770676 -15.9003902,-10.15625 -0.021288,-0.02039 -0.042746,-0.03204 -0.066406,-0.03516 z m 22.9746095,3.910157 0,0.002 c -0.04407,-0.01149 -0.07531,0.0094 -0.08984,0.06641 -1.974426,7.550528 -3.796955,12.09463 -7.345703,17.386719 -0.530307,0.780853 8.096688,1.400674 11.048828,-6.285156 l 0.002,0.0039 C 34.108042,34.776615 30.377805,27.277849 29.716797,27.104846 Z m -2.166016,4.826172 c -0.01803,-0.0045 -0.03993,-9.15e-4 -0.06641,0.01172 -7.042095,3.367657 -11.687258,4.910157 -18.0273438,5.605469 -0.9359926,0.107611 4.1520828,7.098384 11.9296878,4.398438 l 0.0078,-0.002 c 3.279544,-1.722729 6.715158,-9.873069 6.15625,-10.013671 z"
     id="path4190"
     inkscape:connector-curvature="0" />
  <g
     transform="matrix(1.3846 0 0 1.3796 -9.2336 -8.7932)"
     id="g7">
    <g
       clip-path="url(#clipPath-429196716)"
       id="g9">
      <g
         id="g11" />
    </g>
  </g>
  <g
     transform="matrix(1.3846 0 0 1.3796 -9.2336 -9.791)"
     id="g15">
    <g
       clip-path="url(#clipPath-429196716)"
       id="g17">
      <g
         id="g19" />
    </g>
  </g>
  <g
     transform="matrix(1.3846 0 0 1.3796 -9.2336 -9.791)"
     id="g25">
    <g
       clip-path="url(#clipPath-429196716)"
       id="g27">
      <g
         id="g29" />
    </g>
  </g>
  <path
     d="M 36.960903,4.0011056 C 31.326827,4.0663067 22.63471,5.6327331 19.917673,8.8702879 l -0.0059,0 C 17.743744,12.022241 17.46774,24.35755 18.030748,23.597537 22.64481,17.335431 33.703959,9.6013002 40.309049,6.4932477 43.875097,4.8076192 41.343062,3.9504047 36.961003,4.0012056 Z M 31.52083,14.216278 c -3.813152,0.274545 -10.520142,6.767815 -9.578229,6.730614 7.799505,-0.269025 12.671171,0.176953 18.756253,2.068435 0.902762,0.280065 -0.972703,-8.162938 -9.177824,-8.798949 z m -4.125056,6.759914 c -0.201153,0.01048 -0.284474,0.06324 -0.216803,0.160163 4.45706,6.402708 6.722091,10.739182 8.437614,16.877285 0.254764,0.910536 6.327486,-5.248588 2.406233,-12.484211 -2.011027,-2.675045 -9.218125,-4.627078 -10.627144,-4.553077 z m 2.320332,5.130987 c -0.04407,-0.01149 -0.07531,0.0094 -0.08984,0.06641 -1.974426,7.550528 -3.797051,12.095205 -7.345799,17.387294 -0.530307,0.780853 8.097009,1.400524 11.049149,-6.285306 l 0.002,0.0039 c 0.776011,-3.502059 -2.95404,-11.000186 -3.615048,-11.173189 z m -2.16603,4.824282 c -0.01803,-0.0045 -0.03993,-9.13e-4 -0.06641,0.01172 -7.042095,3.367657 -11.687157,4.910283 -18.027243,5.605595 -0.9359926,0.107611 4.152556,7.09842 11.930161,4.398474 l 0.0078,-0.002 c 3.279544,-1.722729 6.715191,-9.873567 6.156283,-10.014169 z"
     id="path21"
     inkscape:connector-curvature="0"
     style="fill:#37a0f2" />
  <path
     d="m 15.915619,11.048225 c -1.423419,0.241824 -7.1360961,4.18047 -5.820378,11.25819 l 0.002,0.0039 c 1.248917,3.615961 9.249725,8.422742 8.972821,7.517727 -2.272131,-7.463626 -3.093242,-12.292208 -2.839839,-18.656315 0.0047,-0.117952 -0.111111,-0.157593 -0.314454,-0.123052 z M 6.7416954,22.194413 C 6.0082055,22.097931 4.2892623,30.110647 11.142155,34.182616 14.685403,35.62704 23.570323,32.780892 22.708311,32.387685 15.595615,29.181531 11.427159,26.615088 6.8080963,22.229514 c -0.021288,-0.02039 -0.042747,-0.03204 -0.066407,-0.03516 z"
     id="path23"
     inkscape:connector-curvature="0"
     style="fill:#5d5d5d" />
  <path
     style="fill:#ffffff;fill-opacity:1;opacity:0.1"
     d="M 36.960938 4.0019531 C 31.326861 4.0671542 22.635006 5.6335389 19.917969 8.8710938 L 19.912109 8.8710938 C 18.251423 11.285456 17.706621 19.042897 17.792969 22.220703 C 17.823193 18.64286 18.402298 12.066149 19.912109 9.8710938 L 19.917969 9.8710938 C 22.635006 6.633539 31.326861 5.0671542 36.960938 5.0019531 C 39.234202 4.9755993 40.999251 5.1951862 41.683594 5.6464844 C 42.873474 4.523646 40.533978 3.9605311 36.960938 4.0019531 z M 15.916016 11.048828 C 14.606734 11.271261 9.6814856 14.628086 9.921875 20.671875 C 10.219766 15.256944 14.680572 12.258717 15.916016 12.048828 C 16.068523 12.022922 16.17277 12.038367 16.212891 12.097656 C 16.220135 11.787629 16.217841 11.489013 16.230469 11.171875 C 16.235169 11.053923 16.119359 11.014287 15.916016 11.048828 z M 16.199219 13.898438 C 16.155635 19.182839 16.944059 23.646617 18.800781 29.908203 C 19.002596 29.963764 19.105544 29.943274 19.070312 29.828125 C 17.133727 23.466717 16.260735 19.01366 16.199219 13.898438 z M 31.521484 14.216797 C 27.708332 14.491342 21.001446 20.984467 21.943359 20.947266 C 22.145023 20.94031 22.323664 20.939581 22.521484 20.933594 C 24.198996 19.105459 28.668741 15.422193 31.521484 15.216797 C 37.807953 15.704086 40.37165 20.761984 40.824219 22.980469 C 41.370458 22.367608 39.264834 14.817014 31.521484 14.216797 z M 27.703125 21.90625 C 27.726533 21.940384 27.748203 21.973792 27.771484 22.007812 C 29.713926 22.162879 36.133381 24.015165 38.023438 26.529297 C 38.882391 28.114266 39.242533 29.639913 39.308594 31.058594 C 39.401147 29.372393 39.088351 27.49431 38.023438 25.529297 C 37.026764 24.203533 34.75381 23.057976 32.542969 22.246094 C 31.0061 22.062095 29.414156 21.951249 27.703125 21.90625 z M 6.7421875 22.195312 C 6.4204963 22.152998 5.9101829 23.670125 6.015625 25.730469 C 6.0837569 24.202127 6.4756154 23.160249 6.7421875 23.195312 C 6.7658475 23.198433 6.7873057 23.210079 6.8085938 23.230469 C 11.234171 27.432339 15.275223 29.967696 21.859375 32.992188 C 22.542336 32.715071 22.912267 32.479446 22.708984 32.386719 C 21.371426 31.783794 20.165579 31.20478 19.013672 30.630859 C 19.034275 30.698898 19.049466 30.759646 19.070312 30.828125 C 19.234373 31.364328 16.496142 29.878046 13.974609 27.839844 C 11.405162 26.224751 9.162683 24.465561 6.8085938 22.230469 C 6.7873057 22.210079 6.7658475 22.198433 6.7421875 22.195312 z M 29.716797 26.105469 L 29.716797 26.107422 C 29.672727 26.095932 29.641483 26.116818 29.626953 26.173828 C 27.652527 33.724356 25.829998 38.268458 22.28125 43.560547 C 22.194632 43.688087 22.371632 43.807167 22.708984 43.890625 C 25.968053 38.879398 27.736926 34.401601 29.626953 27.173828 C 29.641483 27.116818 29.672727 27.095932 29.716797 27.107422 L 29.716797 27.105469 C 30.288842 27.255188 33.154637 32.887588 33.414062 36.671875 C 33.61432 34.152798 32.12107 30.271237 30.945312 27.978516 C 30.622782 27.425106 30.289745 26.864488 29.931641 26.291016 C 29.845314 26.192205 29.768809 26.119082 29.716797 26.105469 z M 27.550781 30.931641 C 27.532751 30.927141 27.510855 30.930726 27.484375 30.943359 C 25.637453 31.826591 23.960135 32.578728 22.369141 33.228516 C 22.48673 33.28191 22.589757 33.332975 22.708984 33.386719 C 23.303609 33.657957 19.259968 35.094163 15.53125 35.486328 C 13.594403 35.961968 11.626905 36.31086 9.4570312 36.548828 C 9.24322 36.57341 9.3572914 36.96635 9.7324219 37.511719 C 15.897445 36.805256 20.504447 35.272917 27.382812 31.990234 C 27.57688 31.393342 27.667544 30.961014 27.550781 30.931641 z "
     id="path4195" />
</svg>

<?xml version="1.0" encoding="UTF-8" standalone="no"?>
<svg xmlns="http://www.w3.org/2000/svg" viewBox="0 0 48 48" version="1.1">
 <defs>
  <clipPath id="clipPath-429196716"/>
 </defs>
 <g transform="matrix(1.3846 0 0 1.3796 -9.2336 -8.7932)">
  <g clip-path="url(#clipPath-429196716)">
   <g>
    <path opacity=".2" d="m41.682 4.6465c-0.27 0.2538-0.716 0.5371-1.373 0.8476-6.605 3.1082-17.664 10.842-22.278 17.104-0.132 0.178-0.212-0.407-0.238-1.377-0.013 1.56 0.067 2.607 0.238 2.377 4.614-6.262 15.673-13.996 22.278-17.104 1.718-0.812 2.01-1.4289 1.373-1.8475zm-25.469 6.4535c-0.014 0.608-0.021 1.212-0.014 1.798 0.005-0.568 0.008-1.135 0.031-1.726 0.002-0.029-0.004-0.053-0.017-0.072zm-6.2911 8.572c-0.0453 0.824 0 1.7 0.1741 2.635l0.002 0.004c0.509 1.474 2.143 3.13 3.879 4.533 1.523 0.958 3.186 1.866 5.037 2.789-0.077-0.252-0.14-0.483-0.213-0.729-1.386-0.382-7.613-4.438-8.703-7.593l-0.002-0.004c-0.1058-0.568-0.1532-1.108-0.1741-1.635zm14.816 0.209c-0.707 0.008-1.458 0.03-2.217 0.053-0.564 0.615-0.815 1.023-0.578 1.013 2.111-0.073 3.996-0.087 5.76-0.041-0.178-0.259-0.338-0.503-0.523-0.769-0.068-0.097 0.015-0.15 0.216-0.16 0.711-0.037 2.901 0.443 5.153 1.271 2.731 0.327 5.311 0.885 8.15 1.768 0.212 0.065 0.264-0.359 0.125-1.037-0.032 0.036-0.074 0.052-0.125 0.037-5.325-1.655-9.72-2.204-15.961-2.135zm2.658 1.096c-0.201 0.01-0.284 0.063-0.216 0.16 1.033 1.484 1.937 2.849 2.756 4.16 0.241 0.278 0.603 0.894 1.002 1.67 2.124 3.644 3.534 6.948 4.679 11.047 0.199 0.711 3.928-2.897 3.692-7.955-0.249 4.522-3.506 7.618-3.692 6.955-1.635-5.849-3.792-10.083-7.846-16.006-0.124-0.01-0.29-0.036-0.375-0.031zm-21.38 3.755c-0.1193 2.678 0.7646 6.859 5.1274 9.452 1.096 0.447 2.704 0.481 4.377 0.306 2.24-0.549 4.442-1.281 6.843-2.261-0.175-0.08-0.334-0.158-0.506-0.237-2.214 0.898-8.008 2.295-10.714 1.192-3.8466-2.286-4.9917-5.814-5.1271-8.452zm21.535 6.2c-0.018-0.005-0.04-0.001-0.067 0.011-0.035 0.017-0.066 0.03-0.101 0.047-0.735 2.261-3.394 7.593-5.988 8.955l-0.008 0.002c-5.999 2.082-10.383-1.592-11.653-3.435-0.0942 0.011-0.1816 0.026-0.277 0.037-0.936 0.107 4.152 7.098 11.93 4.398l0.008-0.002c3.279-1.722 6.715-9.873 6.156-10.013zm5.863 4.74c-0.017 0.211-0.04 0.418-0.082 0.607l-0.002-0.004c-2.469 6.428-8.888 7.042-10.619 6.616-0.146 0.224-0.278 0.443-0.43 0.67-0.53 0.78 8.097 1.4 11.049-6.286l0.002 0.004c0.105-0.471 0.122-1.019 0.082-1.607z" transform="matrix(.72222 0 0 .72487 6.6687 7.0972)"/>
   </g>
  </g>
 </g>
 <g transform="matrix(1.3846 0 0 1.3796 -9.2336 -9.791)">
  <g clip-path="url(#clipPath-429196716)">
   <g>
    <path transform="matrix(.72224 0 0 .72486 6.6681 7.0974)" fill="#37a0f2" d="m36.961 4.002c-5.634 0.0652-14.326 1.6316-17.043 4.8691h-0.0059c-2.168 3.1519-2.444 15.487-1.881 14.727 4.614-6.262 15.673-13.996 22.278-17.104 3.566-1.6856 1.034-2.5428-3.348-2.492zm-5.44 10.215c-3.8131 0.27454-10.52 6.7677-9.5781 6.7305 7.7994-0.26902 12.671 0.17695 18.756 2.0684 0.90275 0.28006-0.97269-8.1628-9.1777-8.7988zm-4.125 6.7598c-0.20115 0.01048-0.28447 0.06324-0.2168 0.16016 4.457 6.4026 6.722 10.739 8.4375 16.877 0.25476 0.91052 6.3274-5.2485 2.4062-12.484-2.011-2.675-9.218-4.627-10.627-4.553zm2.3203 5.1309c-0.04407-0.01149-0.07531 0.0094-0.08984 0.06641-1.9744 7.5504-3.797 12.095-7.3457 17.387-0.5303 0.78084 8.0969 1.4005 11.049-6.2852l0.002 0.0039c0.776-3.502-2.954-11-3.615-11.173zm-2.166 4.8242c-0.01803-0.0045-0.03993-0.000913-0.06641 0.01172-7.042 3.3676-11.687 4.9102-18.027 5.6055-0.93598 0.10761 4.1525 7.0983 11.93 4.3984l0.0078-0.002c3.2795-1.7227 6.7151-9.8734 6.1562-10.014z"/>
    <path transform="matrix(.72224 0 0 .72486 6.6681 7.0974)" fill="#5d5d5d" d="m15.916 11.049c-1.4234 0.24182-7.136 4.1804-5.8203 11.258l0.002 0.0039c1.2489 3.6159 9.2496 8.4226 8.9727 7.5176-2.2721-7.4635-3.0932-12.292-2.8398-18.656 0.0047-0.11795-0.11111-0.15759-0.31445-0.12305zm-9.1738 11.146c-0.73348-0.09648-2.4524 7.9161 4.4004 11.988 3.5432 1.4444 12.428-1.4017 11.566-1.7949-7.1126-3.2061-11.281-5.7725-15.9-10.158-0.021288-0.02039-0.042746-0.03204-0.066406-0.03516z"/>
   </g>
  </g>
 </g>
 <g transform="matrix(1.3846 0 0 1.3796 -9.2336 -9.791)">
  <g clip-path="url(#clipPath-429196716)">
   <g>
    <path opacity=".1" transform="matrix(.72222 0 0 .72487 6.6687 7.0972)" fill="#fff" d="m36.961 4.002c-5.634 0.0652-14.326 1.6316-17.043 4.8691h-0.006c-1.661 2.4149-2.206 10.172-2.119 13.35 0.03-3.578 0.609-10.155 2.119-12.35l0.006 0.0001c2.717-3.2375 11.409-4.8039 17.043-4.8691 2.273-0.0264 4.038 0.1932 4.723 0.6445 1.19-1.1229-1.15-1.686-4.723-1.6445zm-21.045 7.047c-1.309 0.222-6.2345 3.579-5.9941 9.623 0.2981-5.415 4.7591-8.413 5.9941-8.623 0.158-0.027 0.26-0.008 0.297 0.056 0.007-0.312 0.005-0.613 0.017-0.933 0.005-0.118-0.111-0.158-0.314-0.123zm0.283 2.849c-0.043 5.285 0.745 9.749 2.602 16.01 0.202 0.056 0.305 0.035 0.269-0.08-1.936-6.361-2.809-10.814-2.871-15.93zm15.322 0.319c-3.813 0.274-10.519 6.768-9.578 6.73 0.202-0.007 0.381-0.007 0.578-0.013 1.678-1.829 6.148-5.512 9-5.717 6.287 0.487 8.851 5.545 9.303 7.763 0.546-0.612-1.559-8.163-9.303-8.763zm-3.818 7.689c0.024 0.034 0.045 0.068 0.068 0.102 1.942 0.155 8.362 2.008 10.252 4.521 0.859 1.585 1.22 3.111 1.286 4.53 0.092-1.687-0.221-3.565-1.286-5.53-0.996-1.325-3.269-2.471-5.48-3.283-1.537-0.184-3.129-0.295-4.84-0.34zm-20.961 0.289c-0.3217-0.042-0.832 1.477-0.7266 3.537 0.0679-1.529 0.4599-2.572 0.7266-2.537 0.0237 0.003 0.0451 0.015 0.0664 0.035 4.4254 4.202 8.4664 6.74 15.05 9.764 0.683-0.277 1.053-0.513 0.85-0.605-1.338-0.603-2.543-1.182-3.695-1.756 0.02 0.067 0.036 0.127 0.056 0.195 0.164 0.536-2.567-0.946-5.086-2.98-2.573-1.618-4.8184-3.38-7.1754-5.618-0.0213-0.02-0.0428-0.032-0.0664-0.035zm22.975 3.912c-0.044-0.011-0.076 0.01-0.09 0.067-1.975 7.55-3.797 12.095-7.346 17.387-0.086 0.127 0.091 0.246 0.428 0.33 3.259-5.012 5.028-9.49 6.918-16.717 0.014-0.057 0.046-0.078 0.09-0.067 0.572 0.15 3.438 5.781 3.697 9.565 0.201-2.524-1.3-6.415-2.476-8.705-0.319-0.547-0.647-1.1-1-1.666-0.089-0.103-0.168-0.18-0.221-0.194zm-2.166 4.825c-0.018-0.005-0.04-0.001-0.067 0.011-1.848 0.884-3.527 1.635-5.119 2.286 0.119 0.054 0.223 0.105 0.344 0.16 0.595 0.271-3.458 1.711-7.189 2.101-1.933 0.474-3.898 0.821-6.063 1.059-0.2138 0.024-0.0997 0.417 0.2754 0.963 6.1656-0.707 10.772-2.239 17.651-5.522 0.194-0.597 0.285-1.029 0.168-1.058z"/>
   </g>
  </g>
 </g>
</svg>
